Numix-Circle/48x48/apps/steam_icon_236850.svg

<?xml version="1.0" encoding="UTF-8" standalone="no"?>
<svg
   xmlns:dc="http://purl.org/dc/elements/1.1/"
   xmlns:cc="http://creativecommons.org/ns#"
   xmlns:rdf="http://www.w3.org/1999/02/22-rdf-syntax-ns#"
   xmlns:svg="http://www.w3.org/2000/svg"
   xmlns="http://www.w3.org/2000/svg"
   xmlns:xlink="http://www.w3.org/1999/xlink"
   xmlns:sodipodi="http://sodipodi.sourceforge.net/DTD/sodipodi-0.dtd"
   xmlns:inkscape="http://www.inkscape.org/namespaces/inkscape"
   viewBox="0 0 48 48"
   id="svg2"
   version="1.1"
   inkscape:version="0.91 r13725"
   sodipodi:docname="steam_icon_236850.svg"
   inkscape:export-filename="/home/ismael/Imágenes/icons.png"
   inkscape:export-xdpi="245"
   inkscape:export-ydpi="245">
  <metadata
     id="metadata69">
    <rdf:RDF>
      <cc:Work
         rdf:about="">
        <dc:format>image/svg+xml</dc:format>
        <dc:type
           rdf:resource="http://purl.org/dc/dcmitype/StillImage" />
      </cc:Work>
    </rdf:RDF>
  </metadata>
  <sodipodi:namedview
     pagecolor="#ffffff"
     bordercolor="#666666"
     borderopacity="1"
     objecttolerance="10"
     gridtolerance="10"
     guidetolerance="10"
     inkscape:pageopacity="0"
     inkscape:pageshadow="2"
     inkscape:window-width="1366"
     inkscape:window-height="737"
     id="namedview67"
     showgrid="false"
     inkscape:object-paths="true"
     inkscape:snap-intersection-paths="true"
     inkscape:object-nodes="true"
     inkscape:snap-smooth-nodes="true"
     inkscape:snap-midpoints="true"
     inkscape:snap-object-midpoints="true"
     inkscape:snap-center="true"
     inkscape:zoom="12.085106"
     inkscape:cx="23.901318"
     inkscape:cy="23.582746"
     inkscape:window-x="0"
     inkscape:window-y="0"
     inkscape:window-maximized="1"
     inkscape:current-layer="svg2"
     inkscape:snap-nodes="false">
    <inkscape:grid
       type="xygrid"
       id="grid4201" />
  </sodipodi:namedview>
  <defs
     id="defs4">
    <linearGradient
       inkscape:collect="always"
       id="linearGradient4344">
      <stop
         style="stop-color:#ffe57d;stop-opacity:1"
         offset="0"
         id="stop4346" />
      <stop
         style="stop-color:#ffe991;stop-opacity:1"
         offset="1"
         id="stop4348" />
    </linearGradient>
    <linearGradient
       inkscape:collect="always"
       xlink:href="#linearGradient4344"
       id="linearGradient4350"
       x1="24.079226"
       y1="46.924294"
       x2="23.913733"
       y2="1.165493"
       gradientUnits="userSpaceOnUse" />
  </defs>
  <g
     id="g21">
    <path
       d="m 36.31 5 c 5.859 4.062 9.688 10.831 9.688 18.5 c 0 12.426 -10.07 22.5 -22.5 22.5 c -7.669 0 -14.438 -3.828 -18.5 -9.688 c 1.037 1.822 2.306 3.499 3.781 4.969 c 4.085 3.712 9.514 5.969 15.469 5.969 c 12.703 0 23 -10.298 23 -23 c 0 -5.954 -2.256 -11.384 -5.969 -15.469 c -1.469 -1.475 -3.147 -2.744 -4.969 -3.781 z m 4.969 3.781 c 3.854 4.113 6.219 9.637 6.219 15.719 c 0 12.703 -10.297 23 -23 23 c -6.081 0 -11.606 -2.364 -15.719 -6.219 c 4.16 4.144 9.883 6.719 16.219 6.719 c 12.703 0 23 -10.298 23 -23 c 0 -6.335 -2.575 -12.06 -6.719 -16.219 z"
       opacity="0.05"
       id="path23" />
    <path
       d="m 41.28 8.781 c 3.712 4.085 5.969 9.514 5.969 15.469 c 0 12.703 -10.297 23 -23 23 c -5.954 0 -11.384 -2.256 -15.469 -5.969 c 4.113 3.854 9.637 6.219 15.719 6.219 c 12.703 0 23 -10.298 23 -23 c 0 -6.081 -2.364 -11.606 -6.219 -15.719 z"
       opacity="0.1"
       id="path25" />
    <path
       d="m 31.25 2.375 c 8.615 3.154 14.75 11.417 14.75 21.13 c 0 12.426 -10.07 22.5 -22.5 22.5 c -9.708 0 -17.971 -6.135 -21.12 -14.75 a 23 23 0 0 0 44.875 -7 a 23 23 0 0 0 -16 -21.875 z"
       opacity="0.2"
       id="path27" />
  </g>
  <g
     id="g29"
     style="fill:url(#linearGradient4350);fill-opacity:1">
    <path
       d="m 24 1 c 12.703 0 23 10.297 23 23 c 0 12.703 -10.297 23 -23 23 -12.703 0 -23 -10.297 -23 -23 0 -12.703 10.297 -23 23 -23 z"
       id="path31"
       style="fill:url(#linearGradient4350);fill-opacity:1"
       fill-opacity="1"
       fill="url(#linearGradient3764)" />
  </g>
  <g
     id="g33" />
  <g
     id="g63">
    <path
       d="m 40.03 7.531 c 3.712 4.084 5.969 9.514 5.969 15.469 0 12.703 -10.297 23 -23 23 c -5.954 0 -11.384 -2.256 -15.469 -5.969 4.178 4.291 10.01 6.969 16.469 6.969 c 12.703 0 23 -10.298 23 -23 0 -6.462 -2.677 -12.291 -6.969 -16.469 z"
       opacity="0.1"
       id="path65" />
  </g>
  <g
     style="fill:#000000;opacity:0.1"
     transform="matrix(1.1538462,0,0,1.1538462,-2.6923082,-2.6923094)"
     id="g3479">
    <g
       style="fill:#000000"
       id="g3481">
      <path
         style="fill:#000000;fill-rule:evenodd;stroke:none;stroke-width:1px;stroke-linecap:butt;stroke-linejoin:miter;stroke-opacity:1"
         d="M 14.807612,14.807612 20.552854,24 14.807612,33.192388 24,27.447146 33.192388,33.192388 27.447146,24 33.192388,14.807612 24,20.552854 14.807612,14.807612 Z"
         id="path3483"
         inkscape:connector-curvature="0" />
      <path
         style="fill:#000000;fill-rule:evenodd;stroke:none;stroke-width:1px;stroke-linecap:butt;stroke-linejoin:miter;stroke-opacity:1"
         d="M 24,11 24,24 26.4375,21.5625 24,11 l 0,0"
         id="path3485"
         inkscape:connector-curvature="0" />
      <path
         style="fill:#000000;fill-rule:evenodd;stroke:none;stroke-width:1px;stroke-linecap:butt;stroke-linejoin:miter;stroke-opacity:1"
         d="M 24,24 24,37 21.5625,26.4375 24,24"
         id="path3487"
         inkscape:connector-curvature="0" />
      <path
         style="fill:#000000;fill-rule:evenodd;stroke:none;stroke-width:1px;stroke-linecap:butt;stroke-linejoin:miter;stroke-opacity:1"
         d="M 24,24 37,24 26.4375,26.4375 24,24 Z"
         id="path3489"
         inkscape:connector-curvature="0" />
      <path
         style="fill:#000000;fill-rule:evenodd;stroke:none;stroke-width:1px;stroke-linecap:butt;stroke-linejoin:miter;stroke-opacity:1"
         d="M 24,24 21.5625,21.5625 11,24 Z"
         id="path3491"
         inkscape:connector-curvature="0"
         sodipodi:nodetypes="cccc" />
    </g>
    <g
       style="fill:#000000"
       id="g3493">
      <path
         inkscape:connector-curvature="0"
         id="path3495"
         d="M 24,11 21.5625,21.5625 11,24 21.5625,26.4375 24,37 26.4375,26.4375 37,24 26.4375,21.5625 24,11 Z"
         style="fill:#000000;fill-rule:evenodd;stroke:none;stroke-width:1px;stroke-linecap:butt;stroke-linejoin:miter;stroke-opacity:1" />
      <path
         inkscape:connector-curvature="0"
         id="path3497"
         d="M 24,11 24,24 26.4375,21.5625 24,11 l 0,0"
         style="fill:#000000;fill-rule:evenodd;stroke:none;stroke-width:1px;stroke-linecap:butt;stroke-linejoin:miter;stroke-opacity:1" />
      <path
         inkscape:connector-curvature="0"
         id="path3499"
         d="M 24,24 24,37 21.5625,26.4375 24,24"
         style="fill:#000000;fill-rule:evenodd;stroke:none;stroke-width:1px;stroke-linecap:butt;stroke-linejoin:miter;stroke-opacity:1" />
      <path
         inkscape:connector-curvature="0"
         id="path3501"
         d="M 24,24 37,24 26.4375,26.4375 24,24 Z"
         style="fill:#000000;fill-rule:evenodd;stroke:none;stroke-width:1px;stroke-linecap:butt;stroke-linejoin:miter;stroke-opacity:1" />
      <path
         sodipodi:nodetypes="cccc"
         inkscape:connector-curvature="0"
         id="path3503"
         d="M 24,24 21.5625,21.5625 11,24 Z"
         style="fill:#000000;fill-rule:evenodd;stroke:none;stroke-width:1px;stroke-linecap:butt;stroke-linejoin:miter;stroke-opacity:1" />
    </g>
  </g>
  <g
     id="g4297"
     transform="matrix(1.1538462,0,0,1.1538462,-3.6923088,-3.6923088)">
    <g
       id="g4285">
      <path
         inkscape:connector-curvature="0"
         id="path4287"
         d="M 14.807612,14.807612 20.552854,24 14.807612,33.192388 24,27.447146 33.192388,33.192388 27.447146,24 33.192388,14.807612 24,20.552854 14.807612,14.807612 Z"
         style="fill:#6c5353;fill-rule:evenodd;stroke:none;stroke-width:1px;stroke-linecap:butt;stroke-linejoin:miter;stroke-opacity:1" />
      <path
         inkscape:connector-curvature="0"
         id="path4289"
         d="M 24,11 24,24 26.4375,21.5625 24,11 l 0,0"
         style="fill:#917c6f;fill-rule:evenodd;stroke:none;stroke-width:1px;stroke-linecap:butt;stroke-linejoin:miter;stroke-opacity:1" />
      <path
         inkscape:connector-curvature="0"
         id="path4291"
         d="M 24,24 24,37 21.5625,26.4375 24,24"
         style="fill:#917c6f;fill-rule:evenodd;stroke:none;stroke-width:1px;stroke-linecap:butt;stroke-linejoin:miter;stroke-opacity:1" />
      <path
         inkscape:connector-curvature="0"
         id="path4293"
         d="M 24,24 37,24 26.4375,26.4375 24,24 Z"
         style="fill:#917c6f;fill-rule:evenodd;stroke:none;stroke-width:1px;stroke-linecap:butt;stroke-linejoin:miter;stroke-opacity:1" />
      <path
         sodipodi:nodetypes="cccc"
         inkscape:connector-curvature="0"
         id="path4295"
         d="M 24,24 21.5625,21.5625 11,24 Z"
         style="fill:#917c6f;fill-rule:evenodd;stroke:none;stroke-width:1px;stroke-linecap:butt;stroke-linejoin:miter;stroke-opacity:1" />
    </g>
    <g
       id="g4218">
      <path
         style="fill:#c8beb7;fill-rule:evenodd;stroke:none;stroke-width:1px;stroke-linecap:butt;stroke-linejoin:miter;stroke-opacity:1"
         d="M 24,11 21.5625,21.5625 11,24 21.5625,26.4375 24,37 26.4375,26.4375 37,24 26.4375,21.5625 24,11 Z"
         id="path4203"
         inkscape:connector-curvature="0" />
      <path
         style="fill:#917c6f;fill-rule:evenodd;stroke:none;stroke-width:1px;stroke-linecap:butt;stroke-linejoin:miter;stroke-opacity:1"
         d="M 24,11 24,24 26.4375,21.5625 24,11 l 0,0"
         id="path4210"
         inkscape:connector-curvature="0" />
      <path
         style="fill:#917c6f;fill-rule:evenodd;stroke:none;stroke-width:1px;stroke-linecap:butt;stroke-linejoin:miter;stroke-opacity:1"
         d="M 24,24 24,37 21.5625,26.4375 24,24"
         id="path4212"
         inkscape:connector-curvature="0" />
      <path
         style="fill:#917c6f;fill-rule:evenodd;stroke:none;stroke-width:1px;stroke-linecap:butt;stroke-linejoin:miter;stroke-opacity:1"
         d="M 24,24 37,24 26.4375,26.4375 24,24 Z"
         id="path4214"
         inkscape:connector-curvature="0" />
      <path
         style="fill:#917c6f;fill-rule:evenodd;stroke:none;stroke-width:1px;stroke-linecap:butt;stroke-linejoin:miter;stroke-opacity:1"
         d="M 24,24 21.5625,21.5625 11,24 Z"
         id="path4216"
         inkscape:connector-curvature="0"
         sodipodi:nodetypes="cccc" />
    </g>
  </g>
</svg>

<svg xmlns="http://www.w3.org/2000/svg" viewBox="0 0 48 48">
 <defs>
  <linearGradient id="linearGradient4350" x1="24.08" y1="46.924" x2="23.914" y2="1.165" gradientUnits="userSpaceOnUse">
   <stop style="stop-color:#ffe57d;stop-opacity:1"/>
   <stop offset="1" style="stop-color:#ffe991;stop-opacity:1"/>
  </linearGradient>
 </defs>
 <g>
  <path d="m 36.31 5 c 5.859 4.062 9.688 10.831 9.688 18.5 c 0 12.426 -10.07 22.5 -22.5 22.5 c -7.669 0 -14.438 -3.828 -18.5 -9.688 c 1.037 1.822 2.306 3.499 3.781 4.969 c 4.085 3.712 9.514 5.969 15.469 5.969 c 12.703 0 23 -10.298 23 -23 c 0 -5.954 -2.256 -11.384 -5.969 -15.469 c -1.469 -1.475 -3.147 -2.744 -4.969 -3.781 z m 4.969 3.781 c 3.854 4.113 6.219 9.637 6.219 15.719 c 0 12.703 -10.297 23 -23 23 c -6.081 0 -11.606 -2.364 -15.719 -6.219 c 4.16 4.144 9.883 6.719 16.219 6.719 c 12.703 0 23 -10.298 23 -23 c 0 -6.335 -2.575 -12.06 -6.719 -16.219 z" style="opacity:0.05"/>
  <path d="m 41.28 8.781 c 3.712 4.085 5.969 9.514 5.969 15.469 c 0 12.703 -10.297 23 -23 23 c -5.954 0 -11.384 -2.256 -15.469 -5.969 c 4.113 3.854 9.637 6.219 15.719 6.219 c 12.703 0 23 -10.298 23 -23 c 0 -6.081 -2.364 -11.606 -6.219 -15.719 z" style="opacity:0.1"/>
  <path d="m 31.25 2.375 c 8.615 3.154 14.75 11.417 14.75 21.13 c 0 12.426 -10.07 22.5 -22.5 22.5 c -9.708 0 -17.971 -6.135 -21.12 -14.75 a 23 23 0 0 0 44.875 -7 a 23 23 0 0 0 -16 -21.875 z" style="opacity:0.2"/>
 </g>
 <g style="fill:url(#linearGradient4350);fill-opacity:1">
  <path d="m 24 1 c 12.703 0 23 10.297 23 23 c 0 12.703 -10.297 23 -23 23 -12.703 0 -23 -10.297 -23 -23 0 -12.703 10.297 -23 23 -23 z"/>
 </g>
 <g>
  <path d="m 40.03 7.531 c 3.712 4.084 5.969 9.514 5.969 15.469 0 12.703 -10.297 23 -23 23 c -5.954 0 -11.384 -2.256 -15.469 -5.969 4.178 4.291 10.01 6.969 16.469 6.969 c 12.703 0 23 -10.298 23 -23 0 -6.462 -2.677 -12.291 -6.969 -16.469 z" style="opacity:0.1"/>
 </g>
 <g transform="matrix(1.1538462,0,0,1.1538462,-2.6923082,-2.6923094)" style="fill:#000;opacity:0.1">
  <g>
   <path d="m 14.808 14.808 5.745 9.192 -5.745 9.192 9.192 -5.745 9.192 5.745 -5.745 -9.192 5.745 -9.192 -9.192 5.745 -9.192 -5.745" style="stroke:none;fill-rule:evenodd"/>
   <path d="M 24,11 24,24 26.4375,21.5625 24,11 l 0,0" style="stroke:none;fill-rule:evenodd"/>
   <path d="M 24,24 24,37 21.5625,26.4375 24,24" style="stroke:none;fill-rule:evenodd"/>
   <path d="M 24,24 37,24 26.4375,26.4375 24,24 Z" style="stroke:none;fill-rule:evenodd"/>
   <path d="M 24,24 21.5625,21.5625 11,24 Z" style="stroke:none;fill-rule:evenodd"/>
  </g>
  <g>
   <path d="M 24,11 21.5625,21.5625 11,24 21.5625,26.4375 24,37 26.4375,26.4375 37,24 26.4375,21.5625 24,11 Z" style="stroke:none;fill-rule:evenodd"/>
  </g>
 </g>
 <g transform="matrix(1.1538462,0,0,1.1538462,-3.6923082,-3.6923088)">
  <g>
   <path d="m 14.808 14.808 5.745 9.192 -5.745 9.192 9.192 -5.745 9.192 5.745 -5.745 -9.192 5.745 -9.192 -9.192 5.745 -9.192 -5.745" style="fill:#6c5353;stroke:none;fill-rule:evenodd"/>
   <path d="M 24,11 24,24 26.4375,21.5625 24,11 l 0,0" style="fill:#917c6f;stroke:none;fill-rule:evenodd"/>
   <path d="M 24,24 24,37 21.5625,26.4375 24,24" style="fill:#917c6f;stroke:none;fill-rule:evenodd"/>
   <path d="M 24,24 37,24 26.4375,26.4375 24,24 Z" style="fill:#917c6f;stroke:none;fill-rule:evenodd"/>
   <path d="M 24,24 21.5625,21.5625 11,24 Z" style="fill:#917c6f;stroke:none;fill-rule:evenodd"/>
  </g>
  <g>
   <path d="M 24,11 21.5625,21.5625 11,24 21.5625,26.4375 24,37 26.4375,26.4375 37,24 26.4375,21.5625 24,11 Z" style="fill:#c8beb7;stroke:none;fill-rule:evenodd"/>
   <path d="M 24,11 24,24 26.4375,21.5625 24,11 l 0,0" style="fill:#917c6f;stroke:none;fill-rule:evenodd"/>
   <path d="M 24,24 24,37 21.5625,26.4375 24,24" style="fill:#917c6f;stroke:none;fill-rule:evenodd"/>
   <path d="M 24,24 37,24 26.4375,26.4375 24,24 Z" style="fill:#917c6f;stroke:none;fill-rule:evenodd"/>
   <path d="M 24,24 21.5625,21.5625 11,24 Z" style="fill:#917c6f;stroke:none;fill-rule:evenodd"/>
  </g>
 </g>
</svg>
